Icons/vivino_web_app.svg

<svg viewBox="0 0 48 48" xmlns:xlink="http://www.w3.org/1999/xlink">
 <defs>
  <linearGradient id="0">
   <stop stop-opacity="0"/>
   <stop offset="1"/>
  </linearGradient>
  <linearGradient xlink:href="#0" id="1" gradientUnits="userSpaceOnUse" gradientTransform="translate(4e-7,-48)" y1="47" x2="0" y2="1"/>
  <clipPath id="2">
   <g transform="translate(0,-1004.3622)">
    <rect rx="4" y="1005.36" x="1" height="46" width="46" fill="#1890d0"/>
   </g>
  </clipPath>
  <clipPath id="3">
   <g transform="translate(0,-1004.3622)">
    <rect rx="4" y="1005.36" x="1" height="46" width="46" fill="#1890d0"/>
   </g>
  </clipPath>
 </defs>
 <g>
  <g transform="translate(0,-1004.3622)">
   <path d="m 5,1006.3622 c -2.216,0 -4,1.784 -4,4 l 0,37.25 c 0,2.216 1.784,4 4,4 l 38,0 c 2.216,0 4,-1.784 4,-4 l 0,-37.25 c 0,-2.216 -1.784,-4 -4,-4 l -38,0 z m -4,41.5 0,0.5 c 0,2.216 1.784,4 4,4 l 38,0 c 2.216,0 4,-1.784 4,-4 l 0,-0.5 c 0,2.216 -1.784,4 -4,4 l -38,0 c -2.216,0 -4,-1.784 -4,-4 z" opacity="0.02"/>
   <path d="m 1,1047.6122 0,0.25 c 0,2.216 1.784,4 4,4 l 38,0 c 2.216,0 4,-1.784 4,-4 l 0,-0.25 c 0,2.216 -1.784,4 -4,4 l -38,0 c -2.216,0 -4,-1.784 -4,-4 z" opacity="0.05"/>
   <rect width="46" height="46" x="1" y="1005.61" rx="4" opacity="0.1"/>
  </g>
 </g>
 <g>
  <g transform="translate(0,-1004.3622)">
   <rect rx="4" y="1005.36" x="1" height="46" width="46" fill="#b21327"/>
  </g>
 </g>
 <g>
  <rect transform="scale(1,-1)" width="46" height="46" x="1" y="-46.998" rx="4" opacity="0.1" fill="url(#1)"/>
 </g>
 <g>
  <g clip-path="url(#2)">
   <g opacity="0.1">
    <g>
     <path d="M 26 34 C 26 35.105469 25.105469 36 24 36 C 22.894531 36 22 35.105469 22 34 C 22 32.894531 22.894531 32 24 32 C 25.105469 32 26 32.894531 26 34 Z M 26 34 "/>
     <path d="M 29 30 C 29 31.105469 28.105469 32 27 32 C 25.894531 32 25 31.105469 25 30 C 25 28.894531 25.894531 28 27 28 C 28.105469 28 29 28.894531 29 30 Z M 29 30 "/>
     <path d="M 23 30 C 23 31.105469 22.105469 32 21 32 C 19.894531 32 19 31.105469 19 30 C 19 28.894531 19.894531 28 21 28 C 22.105469 28 23 28.894531 23 30 Z M 23 30 "/>
     <path d="M 26 26 C 26 27.105469 25.105469 28 24 28 C 22.894531 28 22 27.105469 22 26 C 22 24.894531 22.894531 24 24 24 C 25.105469 24 26 24.894531 26 26 Z M 26 26 "/>
     <path d="M 21 26 C 21 27.105469 20.105469 28 19 28 C 17.894531 28 17 27.105469 17 26 C 17 24.894531 17.894531 24 19 24 C 20.105469 24 21 24.894531 21 26 Z M 21 26 "/>
     <path d="M 31 26 C 31 27.105469 30.105469 28 29 28 C 27.894531 28 27 27.105469 27 26 C 27 24.894531 27.894531 24 29 24 C 30.105469 24 31 24.894531 31 26 Z M 31 26 "/>
     <path d="M 29 22 C 29 23.105469 28.105469 24 27 24 C 25.894531 24 25 23.105469 25 22 C 25 20.894531 25.894531 20 27 20 C 28.105469 20 29 20.894531 29 22 Z M 29 22 "/>
     <path d="M 23 22 C 23 23.105469 22.105469 24 21 24 C 19.894531 24 19 23.105469 19 22 C 19 20.894531 19.894531 20 21 20 C 22.105469 20 23 20.894531 23 22 Z M 23 22 "/>
     <path d="M 26 18 C 26 19.105469 25.105469 20 24 20 C 22.894531 20 22 19.105469 22 18 C 22 16.894531 22.894531 16 24 16 C 25.105469 16 26 16.894531 26 18 Z M 26 18 "/>
     <path d="M 28 14 C 28 15.105469 27.105469 16 26 16 C 24.894531 16 24 15.105469 24 14 C 24 12.894531 24.894531 12 26 12 C 27.105469 12 28 12.894531 28 14 Z M 28 14 "/>
    </g>
   </g>
  </g>
 </g>
 <g>
  <g clip-path="url(#3)">
   <g transform="translate(0,-1)">
    <g>
     <path d="M 26 34 C 26 35.105469 25.105469 36 24 36 C 22.894531 36 22 35.105469 22 34 C 22 32.894531 22.894531 32 24 32 C 25.105469 32 26 32.894531 26 34 Z M 26 34 " fill="#f9f9f9"/>
     <path d="M 29 30 C 29 31.105469 28.105469 32 27 32 C 25.894531 32 25 31.105469 25 30 C 25 28.894531 25.894531 28 27 28 C 28.105469 28 29 28.894531 29 30 Z M 29 30 " fill="#f9f9f9"/>
     <path d="M 23 30 C 23 31.105469 22.105469 32 21 32 C 19.894531 32 19 31.105469 19 30 C 19 28.894531 19.894531 28 21 28 C 22.105469 28 23 28.894531 23 30 Z M 23 30 " fill="#f9f9f9"/>
     <path d="M 26 26 C 26 27.105469 25.105469 28 24 28 C 22.894531 28 22 27.105469 22 26 C 22 24.894531 22.894531 24 24 24 C 25.105469 24 26 24.894531 26 26 Z M 26 26 " fill="#f9f9f9"/>
     <path d="M 21 26 C 21 27.105469 20.105469 28 19 28 C 17.894531 28 17 27.105469 17 26 C 17 24.894531 17.894531 24 19 24 C 20.105469 24 21 24.894531 21 26 Z M 21 26 " fill="#f9f9f9"/>
     <path d="M 31 26 C 31 27.105469 30.105469 28 29 28 C 27.894531 28 27 27.105469 27 26 C 27 24.894531 27.894531 24 29 24 C 30.105469 24 31 24.894531 31 26 Z M 31 26 " fill="#f9f9f9"/>
     <path d="M 29 22 C 29 23.105469 28.105469 24 27 24 C 25.894531 24 25 23.105469 25 22 C 25 20.894531 25.894531 20 27 20 C 28.105469 20 29 20.894531 29 22 Z M 29 22 " fill="#f9f9f9"/>
     <path d="M 23 22 C 23 23.105469 22.105469 24 21 24 C 19.894531 24 19 23.105469 19 22 C 19 20.894531 19.894531 20 21 20 C 22.105469 20 23 20.894531 23 22 Z M 23 22 " fill="#f9f9f9"/>
     <path d="M 26 18 C 26 19.105469 25.105469 20 24 20 C 22.894531 20 22 19.105469 22 18 C 22 16.894531 22.894531 16 24 16 C 25.105469 16 26 16.894531 26 18 Z M 26 18 " fill="#f9f9f9"/>
     <path d="M 28 14 C 28 15.105469 27.105469 16 26 16 C 24.894531 16 24 15.105469 24 14 C 24 12.894531 24.894531 12 26 12 C 27.105469 12 28 12.894531 28 14 Z M 28 14 " fill="#f9f9f9"/>
    </g>
   </g>
  </g>
 </g>
 <g>
  <g transform="translate(0,-1004.3622)">
   <path d="m 1,1043.3622 0,4 c 0,2.216 1.784,4 4,4 l 38,0 c 2.216,0 4,-1.784 4,-4 l 0,-4 c 0,2.216 -1.784,4 -4,4 l -38,0 c -2.216,0 -4,-1.784 -4,-4 z" opacity="0.1"/>
  </g>
 </g>
</svg>

<svg viewBox="0 0 48 48"><defs><linearGradient id="linearGradient3764" x1="1" x2="47" gradientUnits="userSpaceOnUse" gradientTransform="translate(-48.000001,0.00221467)"><stop stop-color="#9f1122" stop-opacity="1"/><stop offset="1" stop-color="#b21327" stop-opacity="1"/></linearGradient><clipPath id="clipPath-242519627"><g transform="translate(0,-1004.3622)"><rect rx="4" y="1005.36" x="1" height="46" width="46" fill="#1890d0"/></g></clipPath><clipPath id="clipPath-255832450"><g transform="translate(0,-1004.3622)"><rect rx="4" y="1005.36" x="1" height="46" width="46" fill="#1890d0"/></g></clipPath></defs><g><path d="m 1 43 l 0 0.25 c 0 2.216 1.784 4 4 4 l 38 0 c 2.216 0 4 -1.784 4 -4 l 0 -0.25 c 0 2.216 -1.784 4 -4 4 l -38 0 c -2.216 0 -4 -1.784 -4 -4 z m 0 0.5 l 0 0.5 c 0 2.216 1.784 4 4 4 l 38 0 c 2.216 0 4 -1.784 4 -4 l 0 -0.5 c 0 2.216 -1.784 4 -4 4 l -38 0 c -2.216 0 -4 -1.784 -4 -4 z" opacity="0.02"/><path d="m 1 43.25 l 0 0.25 c 0 2.216 1.784 4 4 4 l 38 0 c 2.216 0 4 -1.784 4 -4 l 0 -0.25 c 0 2.216 -1.784 4 -4 4 l -38 0 c -2.216 0 -4 -1.784 -4 -4 z" opacity="0.05"/><path d="m 1 43 l 0 0.25 c 0 2.216 1.784 4 4 4 l 38 0 c 2.216 0 4 -1.784 4 -4 l 0 -0.25 c 0 2.216 -1.784 4 -4 4 l -38 0 c -2.216 0 -4 -1.784 -4 -4 z" opacity="0.1"/></g><g><rect width="46" height="46" x="-47" y="1" rx="4" transform="matrix(0,-1,1,0,0,0)" fill="url(#linearGradient3764)" fill-opacity="1"/></g><g><g clip-path="url(#clipPath-242519627)"><g opacity="0.1"><!-- color: #b21327 --><g><path d="m 26 34 c 0 1.105 -0.895 2 -2 2 c -1.105 0 -2 -0.895 -2 -2 c 0 -1.105 0.895 -2 2 -2 c 1.105 0 2 0.895 2 2 m 0 0" fill="#000"/><path d="m 29 30 c 0 1.105 -0.895 2 -2 2 c -1.105 0 -2 -0.895 -2 -2 c 0 -1.105 0.895 -2 2 -2 c 1.105 0 2 0.895 2 2 m 0 0" fill="#000"/><path d="m 23 30 c 0 1.105 -0.895 2 -2 2 c -1.105 0 -2 -0.895 -2 -2 c 0 -1.105 0.895 -2 2 -2 c 1.105 0 2 0.895 2 2 m 0 0" fill="#000"/><path d="m 26 26 c 0 1.105 -0.895 2 -2 2 c -1.105 0 -2 -0.895 -2 -2 c 0 -1.105 0.895 -2 2 -2 c 1.105 0 2 0.895 2 2 m 0 0" fill="#000"/><path d="m 21 26 c 0 1.105 -0.895 2 -2 2 c -1.105 0 -2 -0.895 -2 -2 c 0 -1.105 0.895 -2 2 -2 c 1.105 0 2 0.895 2 2 m 0 0" fill="#000"/><path d="m 31 26 c 0 1.105 -0.895 2 -2 2 c -1.105 0 -2 -0.895 -2 -2 c 0 -1.105 0.895 -2 2 -2 c 1.105 0 2 0.895 2 2 m 0 0" fill="#000"/><path d="m 29 22 c 0 1.105 -0.895 2 -2 2 c -1.105 0 -2 -0.895 -2 -2 c 0 -1.105 0.895 -2 2 -2 c 1.105 0 2 0.895 2 2 m 0 0" fill="#000"/><path d="m 23 22 c 0 1.105 -0.895 2 -2 2 c -1.105 0 -2 -0.895 -2 -2 c 0 -1.105 0.895 -2 2 -2 c 1.105 0 2 0.895 2 2 m 0 0" fill="#000"/><path d="m 26 18 c 0 1.105 -0.895 2 -2 2 c -1.105 0 -2 -0.895 -2 -2 c 0 -1.105 0.895 -2 2 -2 c 1.105 0 2 0.895 2 2 m 0 0" fill="#000"/><path d="m 28 14 c 0 1.105 -0.895 2 -2 2 c -1.105 0 -2 -0.895 -2 -2 c 0 -1.105 0.895 -2 2 -2 c 1.105 0 2 0.895 2 2 m 0 0" fill="#000"/></g></g></g></g><g><g clip-path="url(#clipPath-255832450)"><g transform="translate(0,-1)"><!-- color: #b21327 --><g><path d="m 26 34 c 0 1.105 -0.895 2 -2 2 c -1.105 0 -2 -0.895 -2 -2 c 0 -1.105 0.895 -2 2 -2 c 1.105 0 2 0.895 2 2 m 0 0" fill="#f9f9f9"/><path d="m 29 30 c 0 1.105 -0.895 2 -2 2 c -1.105 0 -2 -0.895 -2 -2 c 0 -1.105 0.895 -2 2 -2 c 1.105 0 2 0.895 2 2 m 0 0" fill="#f9f9f9"/><path d="m 23 30 c 0 1.105 -0.895 2 -2 2 c -1.105 0 -2 -0.895 -2 -2 c 0 -1.105 0.895 -2 2 -2 c 1.105 0 2 0.895 2 2 m 0 0" fill="#f9f9f9"/><path d="m 26 26 c 0 1.105 -0.895 2 -2 2 c -1.105 0 -2 -0.895 -2 -2 c 0 -1.105 0.895 -2 2 -2 c 1.105 0 2 0.895 2 2 m 0 0" fill="#f9f9f9"/><path d="m 21 26 c 0 1.105 -0.895 2 -2 2 c -1.105 0 -2 -0.895 -2 -2 c 0 -1.105 0.895 -2 2 -2 c 1.105 0 2 0.895 2 2 m 0 0" fill="#f9f9f9"/><path d="m 31 26 c 0 1.105 -0.895 2 -2 2 c -1.105 0 -2 -0.895 -2 -2 c 0 -1.105 0.895 -2 2 -2 c 1.105 0 2 0.895 2 2 m 0 0" fill="#f9f9f9"/><path d="m 29 22 c 0 1.105 -0.895 2 -2 2 c -1.105 0 -2 -0.895 -2 -2 c 0 -1.105 0.895 -2 2 -2 c 1.105 0 2 0.895 2 2 m 0 0" fill="#f9f9f9"/><path d="m 23 22 c 0 1.105 -0.895 2 -2 2 c -1.105 0 -2 -0.895 -2 -2 c 0 -1.105 0.895 -2 2 -2 c 1.105 0 2 0.895 2 2 m 0 0" fill="#f9f9f9"/><path d="m 26 18 c 0 1.105 -0.895 2 -2 2 c -1.105 0 -2 -0.895 -2 -2 c 0 -1.105 0.895 -2 2 -2 c 1.105 0 2 0.895 2 2 m 0 0" fill="#f9f9f9"/><path d="m 28 14 c 0 1.105 -0.895 2 -2 2 c -1.105 0 -2 -0.895 -2 -2 c 0 -1.105 0.895 -2 2 -2 c 1.105 0 2 0.895 2 2 m 0 0" fill="#f9f9f9"/></g></g></g></g><g><g transform="translate(0,-1004.3622)"><path d="m 1 1043.36 0 4 c 0 2.216 1.784 4 4 4 l 38 0 c 2.216 0 4 -1.784 4 -4 l 0 -4 c 0 2.216 -1.784 4 -4 4 l -38 0 c -2.216 0 -4 -1.784 -4 -4 z" opacity="0.1"/></g></g></svg>
